svg/emoji_u1f9df.svg

<svg xmlns="http://www.w3.org/2000/svg" width="128" height="128" id="svg20"><style id="style2">.st1{fill:#2f2f2f}.st3{fill:#fff}</style><path d="M64 9.6c-11.075 0-20.22 2.217-27.785 5.927a10.024 5.792 67.935 0 1-.266 3.868 10.024 5.792 67.935 0 1-4.652 3.285 7.996 4.615 67.852 0 1-.742 2.812 7.996 4.615 67.852 0 1-4.276 1.069 9 4.83 68.147 0 1-.443 2.835 9 4.83 68.147 0 1-5.606 1.114 10.024 5.792 67.935 0 1-4.57 3.045C.771 55.165.2 84.82.2 93.3c0 13.8 28.6 25 63.8 25 35.2 0 63.8-11.2 63.8-25S126.3 9.6 64 9.6z" id="path4" fill="#76bf6a"/><path class="st1" d="M39.143 67.63c-4.315-1.278-6.643-6.452-5.138-11.534 1.533-5.177 6.205-8.279 10.453-7.126 4.314 1.278 6.642 6.451 5.137 11.533-1.437 5.206-6.138 8.403-10.452 7.126z" id="path6" fill="#fff"/><path class="st1" d="M92.09 67.73c4.374-2.825 5.111-9.363 1.784-14.515-3.39-5.25-9.686-7.107-13.963-4.345-4.375 2.825-5.112 9.363-1.785 14.515 3.39 5.25 9.589 7.17 13.963 4.345z" id="path8" fill="#fff"/><path id="path12" d="M85.3 88.3c-1.6-4-9.7-10.3-20.6-10.5h-.4c-10.8.2-18.8 6.6-20.5 10.5-1.7 4-.2 6.7 4.3 6.7h33c4.4 0 5.9-2.7 4.2-6.7z" fill="#47423c"/><path id="path14" d="M84.8 93.9s0-.7-1.1-1c-1.5-.4-3.7 1.2-7 1.1-3.3-.1-7.8-.9-10.7-.9-3.3-.1-3.4 1.9-3.4 1.9h18.1c2.3 0 3.3-.4 4.1-1.1z" class="st3" fill="#c08198"/><path id="path16" d="M69.1 95c4.2.8 6 2 6 7.1 0 2.2-.3 4.9 0 7.1.4 2.4 2.1 2.9 3.3 2.7 2.9-.5 1.9-5.4 2.3-10.8.3-4.1 3.5-4.3 4.1-7.1z" class="st3" fill="#c08198"/><path d="M23.923 86.857c-2.089 4.246-1.878 6.374-5.974 6.374-4.095 0-8.973-3.592-8.973-8.323s9.487-9.258 13.536-8.643c5.577.847 3.33 6.693 1.41 10.592z" id="path4294" fill="#6aac5f"/><path d="M29.901 95.169c0 2.212-.563 4.826-2.49 4.826-1.926 0-4.487-2.614-4.487-4.826 0-2.213 2.58-3.851 4.507-3.851 1.927 0 2.47 1.638 2.47 3.85z" id="path4313" fill="#6aac5f"/></svg>

<?xml version="1.0" encoding="UTF-8" standalone="no"?>
<!DOCTYPE svg PUBLIC "-//W3C//DTD SVG 1.1//EN" "http://www.w3.org/Graphics/SVG/1.1/DTD/svg11.dtd">
<svg width="100%" height="100%" viewBox="0 0 128 128" version="1.1" xmlns="http://www.w3.org/2000/svg" xmlns:xlink="http://www.w3.org/1999/xlink" xml:space="preserve" xmlns:serif="http://www.serif.com/" style="fill-rule:evenodd;clip-rule:evenodd;stroke-linejoin:round;stroke-miterlimit:2;">
    <path id="path4" d="M64,9.6C52.925,9.6 43.78,11.817 36.215,15.527C36.356,16.95 36.265,18.274 35.949,19.395C35.24,21.893 33.481,23.136 31.297,22.68C31.246,23.789 30.991,24.754 30.555,25.492C29.645,27.025 28.035,27.427 26.279,26.561C26.288,27.637 26.137,28.602 25.836,29.396C24.89,31.858 22.623,32.308 20.23,30.51C19.478,32.848 17.764,33.99 15.66,33.555C0.771,55.165 0.2,84.82 0.2,93.3C0.2,107.1 28.8,118.3 64,118.3C99.2,118.3 127.8,107.1 127.8,93.3C127.8,79.5 126.3,9.6 64,9.6Z" style="fill:rgb(118,191,106);fill-rule:nonzero;"/>
    <path id="path6" d="M39.143,67.63C34.828,66.352 32.5,61.178 34.005,56.096C35.538,50.919 40.21,47.817 44.458,48.97C48.772,50.248 51.1,55.421 49.595,60.503C48.158,65.709 43.457,68.906 39.143,67.629L39.143,67.63Z" style="fill:white;fill-rule:nonzero;"/>
    <path id="path8" d="M92.09,67.73C96.464,64.905 97.201,58.367 93.874,53.215C90.484,47.965 84.188,46.108 79.911,48.87C75.536,51.695 74.799,58.233 78.126,63.385C81.516,68.635 87.715,70.555 92.089,67.73L92.09,67.73Z" style="fill:white;fill-rule:nonzero;"/>
    <path id="path12" d="M85.3,88.3C83.7,84.3 75.6,78 64.7,77.8L64.3,77.8C53.5,78 45.5,84.4 43.8,88.3C42.1,92.3 43.6,95 48.1,95L81.1,95C85.5,95 87,92.3 85.3,88.3Z" style="fill:rgb(71,66,60);fill-rule:nonzero;"/>
    <path id="path14" d="M84.8,93.9C84.8,93.9 84.8,93.2 83.7,92.9C82.2,92.5 80,94.1 76.7,94C73.4,93.9 68.9,93.1 66,93.1C62.7,93 62.6,95 62.6,95L80.7,95C83,95 84,94.6 84.8,93.9Z" style="fill:rgb(192,129,152);fill-rule:nonzero;"/>
    <path id="path16" d="M69.1,95C73.3,95.8 75.1,97 75.1,102.1C75.1,104.3 74.8,107 75.1,109.2C75.5,111.6 77.2,112.1 78.4,111.9C81.3,111.4 80.3,106.5 80.7,101.1C81,97 84.2,96.8 84.8,94L69.1,95Z" style="fill:rgb(192,129,152);fill-rule:nonzero;"/>
    <path id="path4294" d="M23.923,86.857C21.834,91.103 22.045,93.231 17.949,93.231C13.854,93.231 8.976,89.639 8.976,84.908C8.976,80.177 18.463,75.65 22.512,76.265C28.089,77.112 25.842,82.958 23.922,86.857L23.923,86.857Z" style="fill:rgb(106,172,95);fill-rule:nonzero;"/>
    <path id="path4313" d="M29.901,95.169C29.901,97.381 29.338,99.995 27.411,99.995C25.485,99.995 22.924,97.381 22.924,95.169C22.924,92.956 25.504,91.318 27.431,91.318C29.358,91.318 29.901,92.956 29.901,95.168L29.901,95.169Z" style="fill:rgb(106,172,95);fill-rule:nonzero;"/>
</svg>
